X: 39607
T: Tell Your Mother I Owes Her Four Pence
R: polka
M: 2/4
K: Gmajor
|:AF/A/ BG/B/|Ad BA|G>A BB/c/|B/A/G/E/ D2|
AF/A/ BG/B/|Ad BA|G>A Bd|1 BA GA:|2 BA Gf||
|:ge fg|a>g f/e/d|ge fg|a/g/f g2|
ge fd|ed BA|G>A Bd|1 BA Gf:|2 BA GA||

